X: 21
T:Castle Kelly
R:Reel
D:Oisin: Over the Moor to Maggie
M:C|
L:1/8
Q:1/2=112
K:Ador
A2cA ~A2cA|G2EG ~G2EG|A2cA GAcd|ecdB cAAG|
~A2cA ~A2cA|G2EG ~G2EG|A2cA GAcd|ecdB cA~A2||
agec d2ed|cAGE ~G3a|agec d2cd|eaag ~a3f|
gedc d2ed|cAGE G2EG|A2cA GAcd|ecdB cA~A2|]
